X: 28848
T: My Wife's A Wanton Wee Thing
R: jig
M: 6/8
K: Dmixolydian
d2 A dfe|d3 A2 B|cdc cGE|=c3 E2 ^c|
d2 A dfe|d3 A2 G|FDF ECE|D3- D2:|
ABA FDF|A3 {B}c3|GcG ECE|{F}G3 B3|
AdA FDF|A3 {f}g3|fdf e^ce|d3- d2 F/G/|
ABA FDF|AdA FDF|GAG ECE|GcG ECE|
ABA FDF|ABA a2 g|fdf e^ce|d3- d2||

